src/lib/packages/icons/src/assets/filled/like-tag.svg

<svg width="24" height="24" viewBox="0 0 24 24" fill="none" xmlns="http://www.w3.org/2000/svg">
<path d="M17.667 2H6.33398C4.11198 2 3.00098 3.11101 3.00098 5.33301V15.333C3.00098 17.555 4.11198 18.666 6.33398 18.666H7.83398C8.35898 18.666 8.85299 18.913 9.16699 19.333L10.667 21.333C11.334 22.222 12.667 22.222 13.334 21.333L14.834 19.333C15.149 18.913 15.643 18.666 16.167 18.666H17.667C19.889 18.666 21 17.555 21 15.333V5.33301C21 3.11101 19.889 2 17.667 2ZM9 14.45C9 14.616 8.86595 14.75 8.69995 14.75H8.04004C7.60404 14.75 7.25 14.396 7.25 13.96V10.26C7.25 9.82501 7.60504 9.46997 8.04004 9.46997H8.69995C8.86595 9.46997 9 9.60402 9 9.77002V14.45ZM16.619 10.5L15.559 13.67C15.349 14.31 15.119 14.75 14.059 14.75H10.299C10.133 14.75 9.99902 14.616 9.99902 14.45V9.18799C9.99902 9.15599 10.004 9.12499 10.014 9.09399L11.099 5.78998C11.229 5.44998 11.549 5.25 11.889 5.25C12.049 5.25 12.209 5.29001 12.349 5.39001C12.789 5.68001 13.049 6.18002 13.049 6.71002V8.41998H15.119C16.699 8.41998 16.959 9.48 16.619 10.5Z" fill="currentColor"/>
</svg>

<svg xmlns="http://www.w3.org/2000/svg" width="24" height="24" fill="none"><path fill="currentColor" d="M17.667 2H6.334C4.112 2 3.001 3.111 3.001 5.333v10c0 2.222 1.111 3.333 3.333 3.333h1.5c.525 0 1.019.247 1.333.667l1.5 2c.667.889 2 .889 2.667 0l1.5-2c.315-.42.809-.667 1.333-.667h1.5c2.222 0 3.333-1.111 3.333-3.333v-10C21 3.111 19.889 2 17.667 2ZM9 14.45a.3.3 0 0 1-.3.3h-.66a.79.79 0 0 1-.79-.79v-3.7c0-.435.355-.79.79-.79h.66a.3.3 0 0 1 .3.3v4.68Zm7.619-3.95-1.06 3.17c-.21.64-.44 1.08-1.5 1.08h-3.76a.3.3 0 0 1-.3-.3V9.188c0-.032.005-.063.015-.094l1.085-3.304a.84.84 0 0 1 .79-.54c.16 0 .32.04.46.14.44.29.7.79.7 1.32v1.71h2.07c1.58 0 1.84 1.06 1.5 2.08Z"/></svg>
